svg/checked.svg

<svg xmlns="http://www.w3.org/2000/svg" viewBox="0 0 32 32" enable-background="new 0 0 32 32"><path d="M 16 3 C 8.8 3 3 8.8 3 16 C 3 23.2 8.8 29 16 29 C 23.2 29 29 23.2 29 16 C 29 14.6 28.8125 13.20625 28.3125 11.90625 L 26.6875 13.5 C 26.8875 14.3 27 15.1 27 16 C 27 22.1 22.1 27 16 27 C 9.9 27 5 22.1 5 16 C 5 9.9 9.9 5 16 5 C 19 5 21.69375 6.19375 23.59375 8.09375 L 25 6.6875 C 22.7 4.3875 19.5 3 16 3 z M 27.28125 7.28125 L 16 18.5625 L 11.71875 14.28125 L 10.28125 15.71875 L 15.28125 20.71875 L 16 21.40625 L 16.71875 20.71875 L 28.71875 8.71875 L 27.28125 7.28125 z" color="#000" overflow="visible" enable-background="accumulate"/></svg>

<svg xmlns="http://www.w3.org/2000/svg" viewBox="0 0 32 32"><path d="M16 3C8.8 3 3 8.8 3 16s5.8 13 13 13 13-5.8 13-13c0-1.4-.188-2.794-.688-4.094L26.688 13.5c.2.8.313 1.6.313 2.5 0 6.1-4.9 11-11 11S5 22.1 5 16 9.9 5 16 5c3 0 5.694 1.194 7.594 3.094L25 6.688C22.7 4.388 19.5 3 16 3zm11.28 4.28L16 18.563l-4.28-4.28-1.44 1.437 5 5 .72.686.72-.687 12-12-1.44-1.44z"/></svg>
